packages/brickdoc-design-icons/assets/basic/move-in.svg

<svg width="1em" height="1em" viewBox="0 0 1em 1em" fill="none" xmlns="http://www.w3.org/2000/svg">
<path d="M2 4C2 2.89543 2.89543 2 4 2H20C21.1046 2 22 2.89544 22 4V11C22 11.5523 21.5523 12 21 12C20.4477 12 20 11.5523 20 11V4H4V20H10.5C11.0523 20 11.5 20.4477 11.5 21C11.5 21.5523 11.0523 22 10.5 22H4C2.89544 22 2 21.1046 2 20V4Z" fill="currentColor"/>
<path fill-rule="evenodd" clip-rule="evenodd" d="M13.2929 13.2929C13.5293 13.0565 13.8683 12.9538 14.1961 13.0194L21.1961 14.4194C21.5927 14.4987 21.9025 14.8092 21.981 15.2059C22.0595 15.6027 21.8912 16.0077 21.5547 16.2321L20.4696 16.9554L21.7071 18.1929C22.0976 18.5834 22.0976 19.2166 21.7071 19.6071L19.6071 21.7071C19.2166 22.0976 18.5834 22.0976 18.1929 21.7071L16.9554 20.4696L16.2321 21.5547C16.0077 21.8912 15.6027 22.0595 15.2059 21.981C14.8092 21.9025 14.4987 21.5927 14.4194 21.1961L13.0194 14.1961C12.9538 13.8683 13.0565 13.5293 13.2929 13.2929ZM15.9071 18.4366L15.9679 18.3453C16.1341 18.096 16.4033 17.9344 16.7015 17.9049C16.9996 17.8753 17.2953 17.981 17.5071 18.1929L18.9 19.5858L19.5858 18.9L18.1929 17.5071C17.981 17.2953 17.8753 16.9996 17.9049 16.7015C17.9344 16.4033 18.096 16.1341 18.3453 15.9679L18.4366 15.9071L15.2748 15.2748L15.9071 18.4366Z" fill="currentColor"/>
</svg>

<svg  viewBox="0 0 24 24" width="1em" height="1em" fill="none" xmlns="http://www.w3.org/2000/svg"><path d="M2 4a2 2 0 0 1 2-2h16a2 2 0 0 1 2 2v7a1 1 0 1 1-2 0V4H4v16h6.5a1 1 0 1 1 0 2H4a2 2 0 0 1-2-2V4Z" fill="#34313c"/><path fill-rule="evenodd" clip-rule="evenodd" d="M13.293 13.293a1 1 0 0 1 .903-.274l7 1.4a1 1 0 0 1 .359 1.813l-1.085.723 1.237 1.238a1 1 0 0 1 0 1.414l-2.1 2.1a1 1 0 0 1-1.414 0l-1.238-1.237-.723 1.085a1 1 0 0 1-1.813-.359l-1.4-7a1 1 0 0 1 .274-.903Zm2.614 5.144.06-.092a1 1 0 0 1 1.54-.152l1.393 1.393.686-.686-1.393-1.393a1 1 0 0 1 .152-1.54l.092-.06-3.162-.632.632 3.162Z" fill="#34313c"/></svg>
